X: 6357
T: Casey's Favourite
R: strathspey
M: 4/4
K: Dmajor
|:(3dcB|A2 B>d A>DF>G|A>Dd>f g>ec>B|(3fed B>d A2 F>G|A>Fd>e f2:|
|:d>g|(3fga d>e f>a d2|e>fe>d c2 A>g|1 (3fga d>g (3fgf (3dcB|A>Bd>e (3fgf:|
[2 B>d (3cde d>f (3efg|f>ba>g f>A||

